X:1
T:Selkie's Waltz
S:Jack Campin abcusers 2002-12-18
M:3/4
L:1/8
Q:1/4=140
K:D Mixolydian
gf|e3d e2|e3d c2   |d3B AG|GA3  BA|G4 E2|E4 DE|D6-|D4:|
DE|G4  GA|Bd3 B/A/G|A4  AG|FED2 BA|G4 E2|E4 DE|D6-|D4:|
